X:11237
T:Mother Goose. TLY.008
M:9/8
L:1/8
Q:120
S:Wm.Tildesley,Swinton,Lancs.1860s.
R:Slip Jig
O:England.
A:Lancashire.
H:1860.
Z:Taz Tarry.
K:G
G2 g gfg dBG|A2B c2d ecA|G2g gfg dBG|( A/2B/2cA) BGE E3:|!
|:e2f g2a bge|(f/2g/2af) (e/2f/2ge) dBG| (A/2B/2cA) BGE E3:|
